X:2019
T:Breeches Full of Stitches
T:Oh Those Britches Full of Stitches
R:Polka
C:Trad.
O:Ireland
M:2/2
L:1/4
Q:1/4=180
K:G
|:"G"G>A BG| "Am"AG "D7"A/B3/2| "G"G>A BG| "Am"AG "C"E2|"G"G>A BG| "Am"AG "D7"Bd| "G"G>A "C"GE| "Am"ED "D"D2 :|
|:"G"d>e dB| "Am"AG "D7"AB| "G"d>e dB| "Am"AG "C"E2|"G"d>e dB| "Am"AG "D7"AB| "C"G>A "Em"GE| "Am"ED "D"D2 :|

